X:38
T:Jobe's Q.S.
S:American Veteran Fifer #38
C:By Thos B. Jobe Comdr. Burkholder Post.115 G.A.R. Yellow Springs O.
M:2/4
L:1/16
Q:1/8=180
K:G 
%%MIDI program 72
%%MIDI transpose 8
%%MIDI ratio 3 1
|: {c}B2{c}B2{c}B2{c}B2 | {c}BAGB AGEG | DCDE GFGA | BAGB A2d2 |
{c}B2{c}B2{c}B2{c}B2 | {c}BAGB AGEG | DCDE GFGA | BGAF G4 :|
|: Bd2e dBAG | Bdge dBAG | Bd2e dBAG | BAGB A4 |
Bd2e dBAG | Bdfd dBAG | Bd2e dBAG | AGFA G4:|

